static/assets/emoji/svg/23ed.svg

<svg enable-background="new 0 0 128 128" viewBox="0 0 128 128" xmlns="http://www.w3.org/2000/svg"><linearGradient id="a" x1="64" x2="64" y1="4.25" y2="123.91" gradientUnits="userSpaceOnUse"><stop stop-color="#FFAB40" offset="0"/><stop stop-color="#FF6D00" offset="1"/></linearGradient><path d="m116 124h-104c-4.42 0-8-3.58-8-8v-104c0-4.42 3.58-8 8-8h104c4.42 0 8 3.58 8 8v104c0 4.42-3.58 8-8 8z" fill="url(#a)"/><g opacity=".2"><path d="m116 7c2.76 0 5 2.24 5 5v104c0 2.76-2.24 5-5 5h-104c-2.76 0-5-2.24-5-5v-104c0-2.76 2.24-5 5-5h104m0-3h-104c-4.42 0-8 3.58-8 8v104c0 4.42 3.58 8 8 8h104c4.42 0 8-3.58 8-8v-104c0-4.42-3.58-8-8-8z" fill="#424242"/></g><g fill="#424242" opacity=".2"><path d="m110.13 36c1.03 0 1.87 0.84 1.87 1.87v52.26c0 1.03-0.84 1.87-1.87 1.87h-10.26c-1.03 0-1.87-0.84-1.87-1.87v-52.26c0-1.03 0.84-1.87 1.87-1.87h10.26m0-3h-10.26c-2.68 0-4.87 2.19-4.87 4.87v52.26c0 2.69 2.19 4.87 4.87 4.87h10.26c2.69 0 4.87-2.19 4.87-4.87v-52.26c0-2.68-2.19-4.87-4.87-4.87z"/><path d="m18.04 36c0.34 0 0.68 0.1 1.01 0.31l38.93 25.66c1.37 0.9 1.37 3.16 0 4.05l-38.93 25.67c-0.33 0.21-0.67 0.31-1.01 0.31-1.06 0-2.04-0.98-2.04-2.34v-51.32c0-1.36 0.98-2.34 2.04-2.34m0-3c-2.78 0-5.04 2.39-5.04 5.34v51.32c0 2.94 2.26 5.34 5.04 5.34 0.93 0 1.85-0.28 2.65-0.8l38.93-25.67c1.49-0.97 2.38-2.67 2.38-4.53s-0.89-3.56-2.38-4.54l-38.92-25.65c-0.81-0.53-1.73-0.81-2.66-0.81z"/><path d="m58.09 36c0.34 0 0.7 0.1 1.03 0.31l39.83 25.66c1.4 0.9 1.4 3.16 0 4.05l-39.83 25.67c-0.33 0.21-0.69 0.31-1.03 0.31-1.09 0-2.09-0.98-2.09-2.34v-51.32c0-1.36 1-2.34 2.09-2.34m0-3c-2.81 0-5.09 2.39-5.09 5.34v51.32c0 2.94 2.28 5.34 5.09 5.34 0.93 0 1.85-0.27 2.65-0.78l39.84-25.67c1.52-0.97 2.43-2.67 2.43-4.55s-0.91-3.58-2.43-4.55l-39.84-25.66c-0.81-0.52-1.72-0.79-2.65-0.79z"/></g><g fill="#FAFAFA"><path d="m110.13 92h-10.26c-1.03 0-1.87-0.84-1.87-1.87v-52.26c0-1.03 0.84-1.87 1.87-1.87h10.26c1.03 0 1.87 0.84 1.87 1.87v52.26c0 1.03-0.84 1.87-1.87 1.87z"/><path d="M16,64V38.34c0-1.79,1.69-2.91,3.05-2.03l38.93,25.66c1.37,0.9,1.37,3.16,0,4.05L19.05,91.69 C17.69,92.58,16,91.45,16,89.66V64z"/><path d="M56,64V38.34c0-1.79,1.73-2.91,3.12-2.03l39.83,25.66c1.4,0.9,1.4,3.16,0,4.05L59.12,91.69 C57.73,92.58,56,91.45,56,89.66V64z"/></g></svg>

<svg viewBox="0 0 128 128" xmlns="http://www.w3.org/2000/svg"><linearGradient id="a" x1="64" x2="64" y1="4.25" y2="123.91" gradientUnits="userSpaceOnUse"><stop stop-color="#FFAB40" offset="0"/><stop stop-color="#FF6D00" offset="1"/></linearGradient><path d="M116 124H12c-4.42 0-8-3.58-8-8V12c0-4.42 3.58-8 8-8h104c4.42 0 8 3.58 8 8v104c0 4.42-3.58 8-8 8z" fill="url(#a)"/><path d="M116 7c2.76 0 5 2.24 5 5v104c0 2.76-2.24 5-5 5H12c-2.76 0-5-2.24-5-5V12c0-2.76 2.24-5 5-5h104m0-3H12c-4.42 0-8 3.58-8 8v104c0 4.42 3.58 8 8 8h104c4.42 0 8-3.58 8-8V12c0-4.42-3.58-8-8-8z" fill="#424242" opacity=".2"/><g fill="#424242" opacity=".2"><path d="M110.13 36c1.03 0 1.87.84 1.87 1.87v52.26c0 1.03-.84 1.87-1.87 1.87H99.87c-1.03 0-1.87-.84-1.87-1.87V37.87c0-1.03.84-1.87 1.87-1.87h10.26m0-3H99.87C97.19 33 95 35.19 95 37.87v52.26c0 2.69 2.19 4.87 4.87 4.87h10.26c2.69 0 4.87-2.19 4.87-4.87V37.87c0-2.68-2.19-4.87-4.87-4.87zM18.04 36c.34 0 .68.1 1.01.31l38.93 25.66c1.37.9 1.37 3.16 0 4.05L19.05 91.69c-.33.21-.67.31-1.01.31-1.06 0-2.04-.98-2.04-2.34V38.34c0-1.36.98-2.34 2.04-2.34m0-3C15.26 33 13 35.39 13 38.34v51.32C13 92.6 15.26 95 18.04 95c.93 0 1.85-.28 2.65-.8l38.93-25.67C61.11 67.56 62 65.86 62 64s-.89-3.56-2.38-4.54L20.7 33.81c-.81-.53-1.73-.81-2.66-.81z"/><path d="M58.09 36c.34 0 .7.1 1.03.31l39.83 25.66c1.4.9 1.4 3.16 0 4.05L59.12 91.69c-.33.21-.69.31-1.03.31C57 92 56 91.02 56 89.66V38.34c0-1.36 1-2.34 2.09-2.34m0-3C55.28 33 53 35.39 53 38.34v51.32C53 92.6 55.28 95 58.09 95c.93 0 1.85-.27 2.65-.78l39.84-25.67c1.52-.97 2.43-2.67 2.43-4.55s-.91-3.58-2.43-4.55L60.74 33.79c-.81-.52-1.72-.79-2.65-.79z"/></g><g fill="#FAFAFA"><path d="M110.13 92H99.87c-1.03 0-1.87-.84-1.87-1.87V37.87c0-1.03.84-1.87 1.87-1.87h10.26c1.03 0 1.87.84 1.87 1.87v52.26c0 1.03-.84 1.87-1.87 1.87zM16 64V38.34c0-1.79 1.69-2.91 3.05-2.03l38.93 25.66c1.37.9 1.37 3.16 0 4.05L19.05 91.69c-1.36.89-3.05-.24-3.05-2.03V64z"/><path d="M56 64V38.34c0-1.79 1.73-2.91 3.12-2.03l39.83 25.66c1.4.9 1.4 3.16 0 4.05L59.12 91.69c-1.39.89-3.12-.24-3.12-2.03V64z"/></g></svg>
